;FLAVOR:Marlin
;TIME:13948
;Filament used: 6.236m
;Layer height: 0.16
;MINX:17.308
;MINY:78.405
;MINZ:0.2
;MAXX:217.692
;MAXY:158.018
;MAXZ:15.2
;Generated with Cura_SteamEngine 4.7.1
M82 ;absolute extrusion mode
; Ender 3 Custom Start G-code
M117 Getting the bed up to temp!
M140 S50 ; Set Heat Bed temperature
M190 S50 ; Wait for Heat Bed temperature
M117 Pre-heating the extruder!
M104 S160; start warming extruder to 160
G28 ; Home all axes
M117 Auto bed-level GO!
G29 ; Auto bed-level (BL-Touch)
G92 E0 ; Reset Extruder
M117 Getting the extruder up to temp!
M104 S200 ; Set Extruder temperature
M109 S200 ; Wait for Extruder temperature
G1 Z1.0 F3000 ; move z up little to prevent scratching of surface
G1 X0.1 Y20 Z0.3 F5000.0 ; move to start-line position
M117 LET THE PURGE BEGIN!
G1 X0.1 Y200.0 Z0.3 F1500.0 E15 ; draw 1st line
G1 X0.4 Y200.0 Z0.3 F5000.0 ; move to side a little
G1 X0.4 Y20 Z0.3 F1500.0 E30 ; draw 2nd line
G92 E0 ; reset extruder
G1 Z1.0 F3000 ; move z up little to prevent scratching of surface
M117 Autobots! Roll Out!
; End of custom start GCode
G92 E0
G92 E0
G1 F2700 E-5
;LAYER_COUNT:112
;LAYER:0
M117 INDICATOR-Layer0
M107
G0 F6000 X72.749 Y80.47 Z0.2
;TYPE:SKIRT
G1 F2700 E0
G1 F1200 X73.363 Y79.973 E0.02627
G1 X73.743 Y79.712 E0.04161
G1 X73.844 Y79.647 E0.0456
G1 X74.529 Y79.254 E0.07187
G1 X75.25 Y78.932 E0.09813
G1 X76 Y78.684 E0.1244
G1 X76.771 Y78.514 E0.15066
G1 X77.555 Y78.423 E0.17692
G1 X78.065 Y78.406 E0.19389
G1 X156.934 Y78.405 E2.81708
G1 X157.723 Y78.445 E2.84336
G1 X158.503 Y78.564 E2.8696
G1 X159.268 Y78.762 E2.89588
G1 X160.008 Y79.036 E2.92213
G1 X160.717 Y79.384 E2.9484
G1 X161.122 Y79.624 E2.96405
G1 X161.221 Y79.687 E2.96796
G1 X161.865 Y80.145 E2.99424
G1 X162.459 Y80.664 E3.02048
G1 X162.998 Y81.242 E3.04676
G1 X163.475 Y81.871 E3.07302
G1 X163.887 Y82.545 E3.09929
G1 X164.104 Y82.974 E3.11528
G1 X164.792 Y84.451 E3.16948
G1 X165.088 Y85.183 E3.19574
G1 X165.31 Y85.941 E3.22201
G1 X165.453 Y86.718 E3.24829
G1 X165.517 Y87.505 E3.27455
G1 X165.502 Y88.294 E3.30079
G1 X165.406 Y89.078 E3.32707
G1 X165.232 Y89.849 E3.35335
G1 X164.981 Y90.597 E3.3796
G1 X164.801 Y91.018 E3.39482
G1 X164.114 Y92.504 E3.44927
G1 X163.747 Y93.203 E3.47553
G1 X163.311 Y93.862 E3.50181
G1 X162.81 Y94.473 E3.52809
G1 X162.251 Y95.03 E3.55434
G1 X161.638 Y95.528 E3.58061
G1 X161.192 Y95.831 E3.59854
G1 X161.092 Y95.894 E3.60247
G1 X160.403 Y96.28 E3.62874
G1 X159.679 Y96.595 E3.655
G1 X158.927 Y96.835 E3.68126
G1 X158.154 Y96.998 E3.70753
G1 X157.369 Y97.082 E3.73379
G1 X156.934 Y97.094 E3.74826
G1 X132.624 Y97.094 E4.55682
G1 X132.624 Y127.626 E5.57232
G1 X138.372 Y127.625 E5.7635
G1 X138.922 Y127.6 E5.78181
G1 X139.229 Y127.575 E5.79205
G1 X139.624 Y127.583 E5.80519
G1 X139.671 Y127.575 E5.80678
G1 X140.456 Y127.491 E5.83304
G1 X141.246 Y127.487 E5.85931
G1 X141.934 Y127.554 E5.8823
G1 X142.803 Y127.547 E5.91121
G1 X143.592 Y127.581 E5.93748
G1 X144.014 Y127.642 E5.95166
G1 X144.162 Y127.623 E5.95662
G1 X144.952 Y127.599 E5.98291
G1 X145.739 Y127.655 E6.00915
G1 X146.447 Y127.774 E6.03303
G1 X146.576 Y127.802 E6.03742
G1 X147.339 Y128.009 E6.06371
G1 X147.691 Y128.144 E6.07625
G1 X148.24 Y127.955 E6.09556
G1 X149.009 Y127.775 E6.12183
G1 X149.792 Y127.674 E6.14809
G1 X149.965 Y127.669 E6.15385
G1 X150.035 Y127.655 E6.15622
G1 X151.089 Y127.578 E6.19137
G1 X151.794 Y127.574 E6.21482
G1 X153.522 Y127.545 E6.2723
G1 X154.311 Y127.572 E6.29856
G1 X154.727 Y127.628 E6.31252
G1 X155.211 Y127.589 E6.32867
G1 X156.149 Y127.555 E6.35989
G1 X156.432 Y127.55 E6.3693
G1 X202.497 Y127.55 E7.90143
G1 X202.853 Y127.558 E7.91327
G1 X203.51 Y127.588 E7.93515
G1 X204.177 Y127.647 E7.95742
G1 X204.812 Y127.731 E7.97872
G1 X205.481 Y127.85 E8.00132
G1 X206.111 Y127.99 E8.02279
G1 X206.766 Y128.165 E8.04534
G1 X207.381 Y128.359 E8.06679
G1 X208.03 Y128.596 E8.08977
G1 X208.631 Y128.846 E8.11142
G1 X209.25 Y129.136 E8.13415
G1 X209.816 Y129.432 E8.1554
G1 X210.407 Y129.775 E8.17812
G1 X210.949 Y130.122 E8.19953
G1 X211.48 Y130.494 E8.22109
G1 X212.002 Y130.893 E8.24295
G1 X212.538 Y131.342 E8.2662
G1 X213.01 Y131.775 E8.28751
G1 X213.49 Y132.256 E8.31011
G1 X213.923 Y132.729 E8.33144
G1 X214.374 Y133.269 E8.35484
G1 X214.771 Y133.79 E8.37662
G1 X215.15 Y134.333 E8.39865
G1 X215.492 Y134.871 E8.41985
G1 X215.818 Y135.435 E8.44152
G1 X216.114 Y136 E8.46273
G1 X216.414 Y136.641 E8.48627
G1 X216.664 Y137.246 E8.50804
G1 X216.898 Y137.892 E8.5309
G1 X217.093 Y138.514 E8.55258
G1 X217.265 Y139.159 E8.57478
G1 X217.404 Y139.786 E8.59614
G1 X217.523 Y140.461 E8.61894
G1 X217.605 Y141.087 E8.63993
G1 X217.663 Y141.754 E8.6622
G1 X217.692 Y142.408 E8.68398
G1 X217.692 Y143.114 E8.70746
G1 X217.662 Y143.764 E8.7291
G1 X217.603 Y144.427 E8.75124
G1 X217.519 Y145.062 E8.77254
G1 X217.4 Y145.731 E8.79514
G1 X217.26 Y146.361 E8.81661
G1 X217.086 Y147.011 E8.83899
G1 X216.893 Y147.624 E8.86036
G1 X216.654 Y148.279 E8.88355
G1 X216.403 Y148.882 E8.90528
G1 X216.114 Y149.5 E8.92797
G1 X215.818 Y150.066 E8.94921
G1 X215.483 Y150.644 E8.97143
G1 X215.14 Y151.182 E8.99265
G1 X214.755 Y151.733 E9.01501
G1 X214.352 Y152.259 E9.03705
G1 X213.908 Y152.787 E9.06
G1 X213.476 Y153.258 E9.08125
G1 X212.999 Y153.735 E9.10369
G1 X212.53 Y154.165 E9.12485
G1 X211.993 Y154.615 E9.14816
G1 X211.477 Y155.009 E9.16975
G1 X210.933 Y155.389 E9.19182
G1 X210.385 Y155.738 E9.21343
G1 X209.809 Y156.071 E9.23556
G1 X209.241 Y156.368 E9.25688
G1 X208.608 Y156.664 E9.28012
G1 X208.006 Y156.913 E9.30179
G1 X207.358 Y157.148 E9.32471
G1 X206.739 Y157.342 E9.34629
G1 X206.096 Y157.514 E9.36843
G1 X205.465 Y157.654 E9.38992
G1 X204.782 Y157.774 E9.41299
G1 X204.152 Y157.856 E9.43412
G1 X203.492 Y157.913 E9.45615
G1 X202.84 Y157.942 E9.47786
G1 X202.493 Y157.95 E9.4894
G1 X156.433 Y157.951 E11.02136
G1 X156.144 Y157.946 E11.03098
G1 X155.201 Y157.911 E11.06236
G1 X154.666 Y157.866 E11.08022
G1 X154.586 Y157.88 E11.08292
G1 X153.612 Y157.924 E11.11535
G1 X153.612 Y157.935 E11.11572
G1 X152.243 Y157.941 E11.16125
G1 X151.92 Y157.926 E11.172
G1 X151.066 Y157.921 E11.20041
G1 X150.277 Y157.876 E11.22669
G1 X149.223 Y157.689 E11.2623
G1 X148.878 Y157.603 E11.27412
G1 X148.123 Y157.374 E11.30036
G1 X147.867 Y157.267 E11.30959
G1 X147.732 Y157.327 E11.31451
G1 X146.982 Y157.574 E11.34077
G1 X146.211 Y157.744 E11.36703
G1 X145.427 Y157.835 E11.39328
G1 X144.637 Y157.847 E11.41956
G1 X144.41 Y157.832 E11.42713
G1 X144.259 Y157.832 E11.43215
G1 X143.714 Y157.918 E11.4505
G1 X142.81 Y157.962 E11.4806
G1 X141.389 Y157.948 E11.52787
G1 X140.947 Y158.002 E11.54268
G1 X140.157 Y158.018 E11.56896
G1 X139.577 Y157.979 E11.58829
G1 X138.754 Y157.893 E11.61581
G1 X138.361 Y157.875 E11.6289
G1 X96.613 Y157.875 E13.01744
G1 X96.035 Y157.901 E13.03669
G1 X95.763 Y157.923 E13.04576
G1 X95.276 Y157.914 E13.06196
G1 X94.477 Y157.937 E13.08855
G1 X94.416 Y157.933 E13.09058
G1 X94.127 Y157.944 E13.1002
G1 X92.196 Y157.958 E13.16443
G1 X91.407 Y157.924 E13.1907
G1 X90.971 Y157.86 E13.20535
G1 X90.902 Y157.87 E13.20767
G1 X90.113 Y157.9 E13.23393
G1 X89.325 Y157.85 E13.26019
G1 X88.36 Y157.678 E13.2928
G1 X88.225 Y157.645 E13.29742
G1 X87.468 Y157.419 E13.32369
G1 X87.305 Y157.351 E13.32957
G1 X86.821 Y157.521 E13.34663
G1 X86.053 Y157.705 E13.3729
G1 X85.161 Y157.808 E13.40276
G1 X84.994 Y157.841 E13.40842
G1 X83.874 Y157.922 E13.44577
G1 X83.38 Y157.922 E13.4622
G1 X83.195 Y157.942 E13.46839
G1 X82.268 Y157.94 E13.49922
G1 X82.216 Y157.937 E13.50096
G1 X81.924 Y157.938 E13.51067
G1 X81.768 Y157.942 E13.51586
G1 X81.336 Y157.941 E13.53023
G1 X80.547 Y157.899 E13.55651
G1 X80.338 Y157.867 E13.56354
G1 X79.788 Y157.911 E13.58189
G1 X78.847 Y157.945 E13.61321
G1 X78.565 Y157.95 E13.62259
G1 X32.503 Y157.951 E15.15462
G1 X32.135 Y157.942 E15.16686
G1 X31.478 Y157.911 E15.18874
G1 X30.828 Y157.853 E15.21044
G1 X30.19 Y157.769 E15.23185
G1 X29.5 Y157.647 E15.25515
G1 X28.876 Y157.507 E15.27642
G1 X28.233 Y157.333 E15.29858
G1 X27.616 Y157.138 E15.3201
G1 X26.974 Y156.904 E15.34283
G1 X26.37 Y156.653 E15.36458
G1 X25.772 Y156.374 E15.38653
G1 X25.209 Y156.082 E15.40762
G1 X24.591 Y155.725 E15.43136
G1 X24.048 Y155.377 E15.45281
G1 X23.511 Y155 E15.47464
G1 X22.988 Y154.599 E15.49655
G1 X22.456 Y154.152 E15.51967
G1 X21.987 Y153.721 E15.54085
G1 X21.516 Y153.249 E15.56303
G1 X21.086 Y152.78 E15.58419
G1 X20.645 Y152.255 E15.607
G1 X20.241 Y151.728 E15.62908
G1 X19.844 Y151.159 E15.65216
G1 X19.499 Y150.615 E15.67358
G1 X19.162 Y150.03 E15.69604
G1 X18.872 Y149.471 E15.71698
G1 X18.59 Y148.864 E15.73925
G1 X18.339 Y148.258 E15.76106
G1 X18.102 Y147.606 E15.78414
G1 X17.908 Y146.987 E15.80571
G1 X17.737 Y146.347 E15.82774
G1 X17.598 Y145.722 E15.84904
G1 X17.478 Y145.041 E15.87204
G1 X17.395 Y144.407 E15.89331
G1 X17.337 Y143.743 E15.91547
G1 X17.308 Y143.094 E15.93708
G1 X17.308 Y142.388 E15.96056
G1 X17.338 Y141.735 E15.98231
G1 X17.398 Y141.068 E16.00458
G1 X17.483 Y140.427 E16.02609
G1 X17.605 Y139.742 E16.04923
G1 X17.743 Y139.128 E16.07016
G1 X17.913 Y138.494 E16.09199
G1 X18.108 Y137.875 E16.11358
G1 X18.346 Y137.224 E16.13663
G1 X18.598 Y136.618 E16.15846
G1 X18.876 Y136.021 E16.18036
G1 X19.166 Y135.462 E16.20131
G1 X19.512 Y134.862 E16.22434
G1 X19.858 Y134.319 E16.24576
G1 X20.251 Y133.758 E16.26854
G1 X20.656 Y133.231 E16.29065
G1 X21.097 Y132.707 E16.31343
G1 X21.527 Y132.239 E16.33457
G1 X21.999 Y131.767 E16.35677
G1 X22.469 Y131.336 E16.37798
G1 X23.002 Y130.889 E16.40111
G1 X23.525 Y130.489 E16.42301
G1 X24.072 Y130.107 E16.4452
G1 X24.618 Y129.759 E16.46674
G1 X25.218 Y129.413 E16.48977
G1 X25.779 Y129.122 E16.51079
G1 X26.388 Y128.839 E16.53313
G1 X26.992 Y128.589 E16.55487
G1 X27.642 Y128.353 E16.57787
G1 X28.261 Y128.159 E16.59945
G1 X28.894 Y127.989 E16.62125
G1 X29.521 Y127.849 E16.64262
G1 X30.209 Y127.728 E16.66585
G1 X30.843 Y127.645 E16.68712
G1 X31.508 Y127.587 E16.70932
G1 X32.16 Y127.558 E16.73103
G1 X32.507 Y127.55 E16.74257
G1 X78.567 Y127.549 E18.27453
G1 X78.856 Y127.554 E18.28414
G1 X79.799 Y127.589 E18.31553
G1 X80.274 Y127.629 E18.33139
G1 X80.381 Y127.61 E18.335
G1 X81.426 Y127.55 E18.36981
G1 X82.871 Y127.564 E18.41788
G1 X83.109 Y127.578 E18.42581
G1 X83.808 Y127.573 E18.44906
G1 X84.597 Y127.607 E18.47532
G1 X84.922 Y127.654 E18.48624
G1 X85.447 Y127.686 E18.50374
G1 X86.226 Y127.814 E18.53
G1 X86.988 Y128.019 E18.55624
G1 X87.332 Y128.151 E18.5685
G1 X88.054 Y127.916 E18.59375
G1 X88.826 Y127.75 E18.62001
G1 X89.381 Y127.68 E18.63862
G1 X89.547 Y127.665 E18.64416
G1 X90.249 Y127.633 E18.66754
G1 X91.119 Y127.633 E18.69647
G1 X91.359 Y127.598 E18.70454
G1 X92.053 Y127.564 E18.72765
G1 X93.444 Y127.558 E18.77391
G1 X93.488 Y127.549 E18.77541
G1 X94.274 Y127.478 E18.80166
G1 X95.399 Y127.515 E18.83909
G1 X96.444 Y127.625 E18.87404
G1 X102.376 Y127.625 E19.07134
G1 X102.374 Y97.095 E20.08677
G1 X78.068 Y97.095 E20.8952
G1 X77.279 Y97.055 E20.92147
G1 X76.499 Y96.936 E20.94771
G1 X75.734 Y96.738 E20.974
G1 X74.994 Y96.464 E21.00024
G1 X74.285 Y96.116 E21.02651
G1 X73.88 Y95.876 E21.04217
G1 X73.781 Y95.813 E21.04607
G1 X73.137 Y95.355 E21.07236
G1 X72.543 Y94.836 E21.09859
G1 X72.004 Y94.258 E21.12488
G1 X71.527 Y93.629 E21.15113
G1 X71.115 Y92.955 E21.17741
G1 X70.917 Y92.566 E21.19193
G1 X70.222 Y91.096 E21.24601
G1 X69.921 Y90.366 E21.27227
G1 X69.696 Y89.609 E21.29854
G1 X69.548 Y88.833 E21.32481
G1 X69.479 Y88.047 E21.35105
G1 X69.49 Y87.257 E21.37733
G1 X69.581 Y86.473 E21.40358
G1 X69.751 Y85.701 E21.42988
G1 X69.998 Y84.951 E21.45614
G1 X70.195 Y84.486 E21.47294
G1 X70.885 Y82.995 E21.52758
G1 X71.253 Y82.296 E21.55385
G1 X71.689 Y81.638 E21.58011
G1 X72.19 Y81.027 E21.60639
G1 X72.749 Y80.47 E21.63263
G0 F6000 X73.077 Y80.715
G1 F1200 X73.959 Y80.048 E21.66941
G1 X74.06 Y79.983 E21.67341
G1 X74.728 Y79.601 E21.699
G1 X75.431 Y79.29 E21.72457
G1 X76.163 Y79.054 E21.75015
G1 X76.916 Y78.896 E21.77574
G1 X78.065 Y78.806 E21.81407
G1 X156.934 Y78.805 E24.43727
G1 X157.702 Y78.845 E24.46284
G1 X158.462 Y78.964 E24.48843
G1 X159.205 Y79.162 E24.51401
G1 X159.924 Y79.436 E24.5396
G1 X160.907 Y79.962 E24.57668
G1 X161.006 Y80.025 E24.58058
G1 X161.632 Y80.471 E24.60615
G1 X162.209 Y80.98 E24.63174
G1 X162.73 Y81.546 E24.65732
G1 X163.19 Y82.162 E24.68289
G1 X163.741 Y83.143 E24.72032
G1 X164.429 Y84.62 E24.77451
G1 X164.717 Y85.334 E24.80012
G1 X164.93 Y86.073 E24.8257
G1 X165.064 Y86.83 E24.85127
G1 X165.12 Y87.597 E24.87684
G1 X165.095 Y88.366 E24.90243
G1 X164.991 Y89.128 E24.92801
G1 X164.808 Y89.875 E24.95359
G1 X164.438 Y90.85 E24.98828
G1 X163.751 Y92.336 E25.04273
G1 X163.392 Y93.017 E25.06833
G1 X162.965 Y93.656 E25.0939
G1 X162.474 Y94.248 E25.11948
G1 X161.923 Y94.786 E25.14509
G1 X161.32 Y95.263 E25.17066
G1 X160.978 Y95.492 E25.18435
G1 X160.878 Y95.555 E25.18828
G1 X160.207 Y95.931 E25.21387
G1 X159.501 Y96.235 E25.23943
G1 X158.766 Y96.464 E25.26504
G1 X158.012 Y96.615 E25.29061
G1 X156.934 Y96.694 E25.32656
G1 X132.224 Y96.694 E26.14842
G1 X132.224 Y128.026 E27.19053
G1 X138.368 Y128.025 E27.39488
G1 X138.968 Y127.998 E27.41486
G1 X139.261 Y127.974 E27.42463
G1 X139.654 Y127.983 E27.43771
G1 X139.734 Y127.97 E27.4404
G1 X140.498 Y127.889 E27.46596
G1 X141.268 Y127.889 E27.49157
G1 X141.896 Y127.954 E27.51257
G1 X142.806 Y127.947 E27.54283
G1 X143.575 Y127.981 E27.56844
G1 X144.016 Y128.047 E27.58327
G1 X144.314 Y128.012 E27.59325
G1 X145.083 Y128.003 E27.61882
G1 X145.849 Y128.073 E27.64441
G1 X146.363 Y128.165 E27.66178
G1 X146.492 Y128.193 E27.66617
G1 X147.234 Y128.395 E27.69174
G1 X147.681 Y128.569 E27.7077
G1 X147.698 Y128.561 E27.70832
G1 X148.428 Y128.318 E27.73391
G1 X149.179 Y128.151 E27.7595
G1 X149.943 Y128.064 E27.78508
G1 X150.051 Y128.062 E27.78867
G1 X150.15 Y128.043 E27.79202
G1 X151.092 Y127.978 E27.82343
G1 X151.803 Y127.974 E27.84707
G1 X153.529 Y127.945 E27.90449
G1 X154.297 Y127.972 E27.93005
G1 X154.713 Y128.03 E27.94402
G1 X155.226 Y127.989 E27.96114
G1 X156.164 Y127.955 E27.99235
G1 X156.432 Y127.95 E28.00127
G1 X202.497 Y127.95 E29.5334
G1 X202.835 Y127.958 E29.54464
G1 X203.492 Y127.988 E29.56652
G1 X204.124 Y128.044 E29.58762
G1 X204.759 Y128.128 E29.60892
G1 X205.394 Y128.24 E29.63037
G1 X206.024 Y128.38 E29.65184
G1 X206.645 Y128.547 E29.67322
G1 X207.26 Y128.741 E29.69467
G1 X207.876 Y128.966 E29.71649
G1 X208.477 Y129.216 E29.73814
G1 X209.064 Y129.491 E29.7597
G1 X209.63 Y129.787 E29.78094
G1 X210.191 Y130.112 E29.8025
G1 X210.733 Y130.459 E29.82391
G1 X211.237 Y130.812 E29.84437
G1 X211.759 Y131.211 E29.86623
G1 X212.267 Y131.637 E29.88828
G1 X212.739 Y132.07 E29.90958
G1 X213.195 Y132.526 E29.93103
G1 X213.628 Y132.999 E29.95236
G1 X214.056 Y133.511 E29.97455
G1 X214.453 Y134.032 E29.99634
G1 X214.812 Y134.547 E30.01722
G1 X215.154 Y135.085 E30.03842
G1 X215.464 Y135.621 E30.05902
G1 X215.76 Y136.186 E30.08023
G1 X216.044 Y136.794 E30.10255
G1 X216.294 Y137.399 E30.12432
G1 X216.516 Y138.011 E30.14598
G1 X216.711 Y138.633 E30.16766
G1 X216.875 Y139.245 E30.18873
G1 X217.014 Y139.872 E30.21009
G1 X217.126 Y140.513 E30.23174
G1 X217.208 Y141.139 E30.25273
G1 X217.264 Y141.772 E30.27387
G1 X217.293 Y142.426 E30.29564
G1 X217.292 Y143.095 E30.31789
G1 X217.262 Y143.745 E30.33954
G1 X217.206 Y144.374 E30.36054
G1 X217.122 Y145.009 E30.38184
G1 X217.01 Y145.644 E30.40329
G1 X216.87 Y146.274 E30.42476
G1 X216.704 Y146.891 E30.44601
G1 X216.511 Y147.504 E30.46738
G1 X216.285 Y148.126 E30.48939
G1 X216.034 Y148.729 E30.51112
G1 X215.759 Y149.314 E30.53262
G1 X215.463 Y149.88 E30.55386
G1 X215.146 Y150.429 E30.57495
G1 X214.803 Y150.967 E30.59617
G1 X214.437 Y151.49 E30.6174
G1 X214.034 Y152.016 E30.63944
G1 X213.613 Y152.517 E30.6612
G1 X213.181 Y152.988 E30.68246
G1 X212.729 Y153.44 E30.70372
G1 X212.26 Y153.87 E30.72488
G1 X211.75 Y154.297 E30.74701
G1 X211.234 Y154.691 E30.7686
G1 X210.718 Y155.052 E30.78955
G1 X210.17 Y155.401 E30.81115
G1 X209.624 Y155.717 E30.83214
G1 X209.056 Y156.014 E30.85346
G1 X208.455 Y156.294 E30.87551
G1 X207.853 Y156.543 E30.89718
G1 X207.238 Y156.766 E30.91893
G1 X206.619 Y156.96 E30.94051
G1 X206.009 Y157.123 E30.96151
G1 X205.378 Y157.263 E30.98301
